X: 19992
T: Jim Keefe's
R: polka
M: 2/4
K: Amajor
|:c/d/|ea ce/c/|Ac E>B|cB Bc/e/|fe c>d|
ea cc/B/|Ac EA|c/d/c/B/ cB|A2- A:|
|:A/B/|cB Bc/e/|fe c>B|cB- Bc/e/|fe c>d|
ea c/e/c/B/|Ac EA|c/d/c/B/ cB|A2- A:|

